X:1
T:Title
%%score { ( 1 3 ) | ( 2 4 ) }
L:1/8
M:6/8
K:F
V:1 treble nm="Grand Piano"
V:3 treble 
V:2 treble 
V:4 treble 
V:1
 z3 z2[Q:1/4=84] c | cAB cAG | FED C2 C | EGB d2 c |[M:5/8] A-A- A3 |[M:1/8] c |[M:3/4] cA Bc AG | %7
 FE D C3 | DF BA/A/- AG |[M:5/8] F-F- F3 |[M:3/4] F2 z [Ac]3 | z2 z [Bd]3 | [Ac]=B AG AB | %13
[M:7/8] c-c-c- c3 z |[M:3/4] [Ac][FA] [GB][Ac] [FA][EG] | [DF][CE] [B,D] [A,C]3 | %16
[M:13/16] [B,D][DF][DB][CA][FA]3/2[EG] |[M:3/4] F6 |] %18
V:2
 z3 z2 A | AFG AFE | DCB, .A,3 | CEG B2 A |[M:5/8] F-F- F3 |[M:1/8] A |[M:3/4] AF GA FE | %7
 DC[K:bass] B, A,3 | B,D DC/C/- CB, |[M:5/8] A,-A,- A,3 |[M:3/4] z2[K:treble] B F,2 A, | %11
 z G B[K:bass] [F,B,]2 F, | z[K:treble] G F[G,F] [G,F][G,F] |[M:7/8][K:bass] G,2 z z z z2 | %14
[M:3/4] F,F, F,F, F,[A,,F,] | [B,,F,]2 [B,,F,] [F,,F,]3 | %16
[M:13/16] [B,,F,][B,,F,][B,,F,][C,F,][C,C]3/2[C,B,] |[M:3/4] F,-[F,-C] [F,-B,] [F,A,]3 |] %18
V:3
 x6 | x6 | x6 | x6 |[M:5/8] x5 |[M:1/8] x |[M:3/4] x6 | x6 | x6 |[M:5/8] x5 |[M:3/4] z A d C2 C | %11
 [EG]B .e2 z B, | x6 |[M:7/8] E2 G B3 [Bc] |[M:3/4] x6 | x6 |[M:13/16] x13/2 |[M:3/4] z E D C3 |] %18
V:4
 x6 | x6 | x6 | x6 |[M:5/8] x5 |[M:1/8] x |[M:3/4] x6 | x2[K:bass] x4 | x6 |[M:5/8] x5 | %10
[M:3/4] x2[K:treble] x4 | C4[K:bass] z2 | F,2[K:treble] z2 z2 | %13
[M:7/8][K:bass] C,2- [C,-E,] [C,G,]3 [C,G,] |[M:3/4] x6 | x6 |[M:13/16] x13/2 | %17
[M:3/4] .A,2 z2 z2 |] %18

